X: 384
T: Benton's Dream
B: jims roots
M:C|
L:1/8
R: reel
Q: 1/4=100
K:Amix
V:1 
"A"[a6c6] e2|"G"[g6B6] f2|"A"e3f edcB|A3c BA^GB|"A"A2 F2 EFAB|
"E"=cBcB AFEF|"A"A3A- "E"AcB^G|[1"A"A3A- Ace^g:|[2 "A"A6 ||
|:F2|"G"G2BG AGBG|AB-BA B2D2|G2BG AGBG|AB-BA B2B2|
"A"A3A- Ace^g|a2 a2 =gedc|A3c "E"BA^GB |[1 "A"A6 :|[2"A"A3A- Ace^g||["final" "A"A8|]
% abcbook-tune_id 6298c245c531386708435b1f


% abcbook-boost 0
% abcbook-tablature 
% abcbook-transpose 
% abcbook-lastupdated 1654178373288
% abcbook-soundfonts 
% abcbook-repeats 1


